X: 23333
T: Leila's Birthday
R: reel
M: 4/4
K: Gminor
d2G/G/G BAGF|G2D/D/D B2GE|CEGe dGeG|EFdF cFAc|
d2G/G/G BAGF|G2D/D/D ABGF|1 CEGB cE E/E/E|cBAB cFBc:|2 CEGc BEcE|F/F/F cF dcdf ]|
g2dg b2(f2|f)fBf bagf|gfga baba|gfgb dcdf|
[1 g2dg b2(f2|f)fBf bagf|gfed edef|g2dB c2df:|
[2 g2dB c2cd|(3GGG dG cdcB|cdE2 dcBc|d2fd gfdc||

